X:1
T:Polska efter Gammel-Spaken
R:polska L1
A:S\"arna, Dalarna
Z:id:hn-L1-1
M:3/4
K:D
A2|:g2 f2 ed|e>d cB A2|g2 f2 ed|e>d cB AG|
A2 B2 c2|d2 e2 f2|ge/g/ (3fdf (3ece|1 d2 d2 A2:|2 d2 d2 AA||
|:A2 B2 c2|d2 e2 f2|ge/g/ (3fdf (3ece|e>d cB AG|
A2 B2 c2|d2 e2 f2|ge/g/ (3fdf (3ece|1 d2 d2 AA:|2 d2 d2||
<end>
<start>
